public/images/hashed/9d8a86d31e2f357645eaa385b96a593a.svg

<?xml version="1.0" encoding="UTF-8"?>
<svg width="80px" height="80px" viewBox="0 0 80 80" version="1.1" xmlns="http://www.w3.org/2000/svg" xmlns:xlink="http://www.w3.org/1999/xlink">
    <!-- Generator: Sketch 64 (93537) - https://sketch.com -->
    <title>Icon-Architecture/64/Arch_Amazon-Macie_64</title>
    <desc>Created with Sketch.</desc>
    <defs>
        <linearGradient x1="0%" y1="100%" x2="100%" y2="0%" id="linearGradient-1">
            <stop stop-color="#BD0816" offset="0%"></stop>
            <stop stop-color="#FF5252" offset="100%"></stop>
        </linearGradient>
    </defs>
    <g id="Icon-Architecture/64/Arch_Amazon-Macie_64" stroke="none" stroke-width="1" fill="none" fill-rule="evenodd">
        <g id="Icon-Architecture-BG/64/Security-Identity-Compliance" fill="url(#linearGradient-1)">
            <rect id="Rectangle" x="0" y="0" width="80" height="80"></rect>
        </g>
        <path d="M55.5558823,41.8371782 C53.5045112,40.2543948 51.7666421,38.9221524 50.2979209,37.8245438 C52.0267177,34.7713228 54.0488554,31.2925795 54.9500474,30.5628289 C57.4328616,32.0978902 65.3510531,45.8020905 65.9558799,49.3971564 C64.0103536,48.3611888 59.1959319,44.6468177 55.5558823,41.8371782 M39.802159,49.994677 C39.1771713,49.6099175 37.9735659,47.9147882 36.5945607,45.7414436 C36.8838695,45.2851009 37.1913232,44.7959493 37.5209538,44.2690176 C39.3828124,41.3012986 42.4633972,36.3879094 43.5702303,35.7357071 C44.2123548,35.9345493 45.7828885,36.990401 47.6810368,38.3743423 C45.3867269,42.4416583 41.3394273,49.5751201 39.802159,49.994677 M31.7025195,49.3504285 C31.0059606,48.5510831 29.7580012,46.3160974 28.9717263,44.9043182 C26.9838621,41.3420613 26.2429492,40.1082458 25.1895424,40.0724542 C24.3216159,40.0406395 23.3881665,40.831037 19.6694894,44.2103592 C18.2340337,45.5157578 16.1272202,47.4306076 14.6685794,48.541141 C16.7249907,44.0592391 22.9980532,33.0582977 25.0857138,30.3848651 C26.0332759,31.7081596 27.9495689,35.0377712 29.5422796,37.801677 C31.4404279,41.0994739 32.9666076,43.7043059 34.2206153,45.7354784 C33.2307154,47.281476 32.2629924,48.7290468 31.7025195,49.3504285 M66.5365137,45.0773109 C64.6353413,40.8181122 57.6909211,28.5028243 54.9228302,28.5028243 C53.4964469,28.5028243 52.0660314,30.6433599 48.6699287,36.6245315 C45.9633285,34.6649422 44.4109396,33.7522568 43.5651901,33.7244189 C42.0329621,33.6995636 40.3767445,35.9345493 35.8062697,43.2241021 C35.6802641,43.4249327 35.5502263,43.6327227 35.4171644,43.8444896 C33.9736443,41.4703145 32.4646014,38.8515635 31.2952694,36.820391 C26.7610842,28.9452481 26.1290401,28.0385279 25.1502287,28.0027363 C24.459718,27.9768868 23.8165855,27.9550142 18.6191068,36.9396963 C16.2874993,40.9712207 13.3359443,46.4185011 12.3672133,48.8523289 C12.0718562,49.5920217 11.7059359,50.513655 12.3863661,51.0912914 C13.6635588,52.1759753 15.6584794,50.5593887 21.0363981,45.6718489 C22.3982665,44.4330624 24.1935942,42.8025568 25.022207,42.2249204 C25.562519,42.9198737 26.5302419,44.6537771 27.2046239,45.8627373 C29.4878452,49.9559028 30.4656486,51.5058773 31.6894149,51.5406747 C31.7025195,51.5406747 31.7156241,51.5406747 31.7267126,51.5406747 C32.5946391,51.5406747 33.3899864,50.6946013 35.4040598,47.6036003 C37.5018009,50.8139066 38.697342,52 39.7184913,52 L39.733612,52 C42.0238897,51.9741505 44.5510578,47.9983019 49.308021,39.5783315 C50.975327,40.8280544 52.754526,42.2000651 54.3139712,43.4030601 C64.807717,51.5009062 66.4125242,52.4543543 67.5233895,51.2603072 C68.1443451,50.5912034 68.4558309,49.3792606 66.5365137,45.0773109" id="Amazon-Macie-Icon_64_Squid" fill="#FFFFFF"></path>
    </g>
</svg>

<svg xmlns="http://www.w3.org/2000/svg" width="80" height="80"><defs><linearGradient id="a" x1="0%" x2="100%" y1="100%" y2="0%"><stop offset="0%" stop-color="#BD0816"/><stop offset="100%" stop-color="#FF5252"/></linearGradient></defs><g fill="none" fill-rule="evenodd"><path fill="url(#a)" d="M0 0h80v80H0z"/><path fill="#FFF" d="M55.556 41.837a449.34 449.34 0 0 0-5.258-4.012c1.729-3.054 3.75-6.532 4.652-7.262 2.483 1.535 10.401 15.24 11.006 18.834-1.946-1.036-6.76-4.75-10.4-7.56m-15.754 8.158c-.625-.385-1.828-2.08-3.207-4.254.289-.456.596-.945.926-1.472 1.862-2.968 4.942-7.881 6.05-8.533.641.199 2.212 1.254 4.11 2.638-2.294 4.068-6.342 11.201-7.879 11.62m-8.1-.644c-.696-.799-1.944-3.034-2.73-4.446-1.988-3.562-2.73-4.796-3.782-4.832-.868-.031-1.802.759-5.52 4.138-1.436 1.306-3.543 3.22-5.001 4.331 2.056-4.482 8.33-15.483 10.417-18.156.947 1.323 2.864 4.653 4.456 7.417 1.898 3.297 3.425 5.902 4.679 7.933-.99 1.546-1.958 2.994-2.518 3.615m34.834-4.273c-1.902-4.259-8.846-16.574-11.614-16.574-1.427 0-2.857 2.14-6.253 8.122-2.707-1.96-4.26-2.873-5.105-2.9-1.532-.025-3.188 2.21-7.759 9.5l-.389.62c-1.443-2.375-2.952-4.993-4.122-7.025-4.534-7.875-5.166-8.781-6.145-8.817-.69-.026-1.333-.048-6.53 8.937-2.333 4.031-5.284 9.479-6.253 11.912-.295.74-.661 1.662.02 2.24 1.277 1.084 3.271-.533 8.65-5.42 1.361-1.239 3.157-2.87 3.985-3.447.54.695 1.508 2.429 2.183 3.638 2.283 4.093 3.26 5.643 4.484 5.678h.038c.868 0 1.663-.846 3.677-3.937C37.502 50.814 38.697 52 39.718 52h.016c2.29-.026 4.817-4.002 9.574-12.422a466.511 466.511 0 0 1 5.006 3.825c10.494 8.098 12.099 9.051 13.21 7.857.62-.669.932-1.88-.987-6.183"/></g></svg>
